X:63
T:Morning Dew, The
S:The Session: https://thesession.org/tunes/69#setting55373
C:Traditional
R:reel
K:Edor
M:4/4
L:1/8
Q:1/4=120
|:"Em"E3 B- BAFD|EBEB "D"AGFD|"Em"E3 B- BAFA|"G"BcdB "D"ADFA:|
|:"Em"B2 eB fBeB|B2 eB "D"AFDF|"Em"B2eB fBeB| "G"dcdB "D"ADFA|
|"Em"B2 eB fBeB|B2 eB "D"AFDF| "Em"B2ef gfge|"G"dcdB "D"ADFA:||
|:"Em"B2 GB FBEB|B2 dB "D"ADFA| "Em"B2 GB FBEB|"G"dcdB "D"ADFA|
|"Em"BAGF EFGA|B2 GB "D"ADFA|"Em"BAGF EFGA|"G"BcdB "D"ADFA:|

